resources/images/plate_locked_dark.svg

<svg width="43" height="43" viewBox="0 0 43 43" fill="none" xmlns="http://www.w3.org/2000/svg">
<path d="M38 1.5H5C3.067 1.5 1.5 3.067 1.5 5V38C1.5 39.933 3.067 41.5 5 41.5H38C39.933 41.5 41.5 39.933 41.5 38V5C41.5 3.067 39.933 1.5 38 1.5Z" fill="#FF7C3F"/>
<path d="M38 2C39.65 2 41 3.35 41 5V38C41 39.65 39.65 41 38 41H5C3.35 41 2 39.65 2 38V5C2 3.35 3.35 2 5 2H38ZM38 1H5C2.79 1 1 2.79 1 5V38C1 40.21 2.79 42 5 42H38C40.21 42 42 40.21 42 38V5C42 2.79 40.21 1 38 1Z" fill="#B3B3B3"/>
<path d="M31.5 22.5H11.5C10.9477 22.5 10.5 22.9477 10.5 23.5V35.5C10.5 36.0523 10.9477 36.5 11.5 36.5H31.5C32.0523 36.5 32.5 36.0523 32.5 35.5V23.5C32.5 22.9477 32.0523 22.5 31.5 22.5Z" stroke="#C4C4C4" stroke-linecap="round" stroke-linejoin="round"/>
<path d="M30.5 22.5V15.5C30.5 10.53 26.47 6.5 21.5 6.5C16.53 6.5 12.5 10.53 12.5 15.5V22.5" stroke="#C4C4C4" stroke-linecap="round" stroke-linejoin="round"/>
</svg>

<?xml version="1.0" encoding="UTF-8"?><svg id="a" xmlns="http://www.w3.org/2000/svg" width="43" height="43" viewBox="0 0 43 43"><rect x="1.5" y="1.5" width="40" height="40" rx="3.5" ry="3.5" style="fill:#009688;"/><path d="M38,2c1.65,0,3,1.35,3,3v33c0,1.65-1.35,3-3,3H5c-1.65,0-3-1.35-3-3V5c0-1.65,1.35-3,3-3h33M38,1H5C2.79,1,1,2.79,1,5v33c0,2.21,1.79,4,4,4h33c2.21,0,4-1.79,4-4V5c0-2.21-1.79-4-4-4h0Z" style="fill:#b3b3b3;"/><rect x="10.5" y="22.5" width="22" height="14" rx="1" ry="1" style="fill:none; stroke:#c4c4c4; stroke-linecap:round; stroke-linejoin:round;"/><path d="M30.5,22.5v-7c0-4.97-4.03-9-9-9s-9,4.03-9,9v7" style="fill:none; stroke:#c4c4c4; stroke-linecap:round; stroke-linejoin:round;"/></svg>
